src/4-icons/image.svg

<svg width="260" height="260" viewBox="0 0 260 260" fill="none" xmlns="http://www.w3.org/2000/svg">
<g opacity="0.9">
<path fill-rule="evenodd" clip-rule="evenodd" d="M181.74 106.392C177.787 110.37 172.25 112.892 166.192 112.892C160.134 112.892 154.622 110.343 150.644 106.392C146.665 102.413 144.144 96.9016 144.144 90.8434C144.144 84.7852 146.665 79.2734 150.644 75.2952C154.622 71.317 160.134 68.7952 166.192 68.7952C172.25 68.7952 177.762 71.317 181.74 75.2952C185.718 79.2734 188.24 84.7852 188.24 90.8434C188.24 96.9016 185.718 102.413 181.74 106.392ZM166.192 79.1698C163.072 79.1698 160.16 80.4698 158.002 82.628C155.844 84.7862 154.518 87.698 154.544 90.818C154.544 93.938 155.844 96.8498 158.002 99.008C160.16 101.166 163.072 102.466 166.192 102.466C169.337 102.466 172.249 101.166 174.407 99.008C176.565 96.8498 177.865 93.938 177.865 90.818C177.865 87.698 176.564 84.7862 174.407 82.628C172.25 80.4698 169.337 79.1698 166.192 79.1698Z" fill="black"/>
<path fill-rule="evenodd" clip-rule="evenodd" d="M62.2437 53.0654H201.708C208.885 53.0908 214.683 58.889 214.708 66.0654V193.934C214.682 201.11 208.885 206.908 201.708 206.934H62.2437C55.0672 206.907 49.2701 201.109 49.2437 193.934V66.0654C49.269 58.889 55.0672 53.0918 62.2437 53.0654ZM62.2447 63.4664C61.5165 63.4929 60.8919 63.7529 60.3983 64.2464C59.9311 64.74 59.6447 65.3657 59.6447 66.0675V140.064L91.5211 110.112C95.3429 106.524 100.283 104.782 105.171 104.782C110.059 104.782 114.999 106.524 118.821 110.112L138.476 128.597L147.706 121.499C151.165 118.822 155.376 117.677 159.485 117.677C163.593 117.703 167.753 118.847 171.211 121.473L204.309 146.511V66.0664C204.309 65.3646 204.049 64.74 203.555 64.2464C203.035 63.7529 202.411 63.4664 201.709 63.4664H62.2447ZM101.79 154.128C105.82 152.75 109.643 150.775 112.658 148.46L130.129 135.045L111.694 117.703C109.953 116.066 107.613 115.207 105.169 115.207C102.725 115.207 100.385 116.065 98.6437 117.703L61.8019 152.335L61.7501 152.386C61.6258 152.5 61.423 152.688 61.1631 152.93C60.7709 153.294 60.2486 153.779 59.6701 154.31V156.26H89.7254C93.5219 156.26 97.7601 155.506 101.79 154.128ZM201.683 196.535C202.41 196.509 203.034 196.249 203.528 195.755V195.753C204.023 195.259 204.308 194.634 204.308 193.984V159.613L164.918 129.791L164.893 129.765C163.67 128.803 161.616 128.127 159.485 128.127C157.353 128.102 155.298 128.804 154.076 129.765L118.976 156.727C114.921 159.847 110.163 162.265 105.145 163.982C100.127 165.672 94.8747 166.635 89.7529 166.66H59.6447V193.935C59.6447 194.636 59.9047 195.26 60.3983 195.755C60.9183 196.249 61.5429 196.535 62.2447 196.535H201.683Z" fill="black"/>
</g>
</svg>

<svg width="260" height="260" fill="none" xmlns="http://www.w3.org/2000/svg"><g opacity=".9" fill-rule="evenodd" clip-rule="evenodd" fill="#000"><path d="M181.74 106.392c-3.953 3.978-9.49 6.5-15.548 6.5s-11.57-2.549-15.548-6.5c-3.979-3.979-6.5-9.49-6.5-15.549 0-6.058 2.521-11.57 6.5-15.548 3.978-3.978 9.49-6.5 15.548-6.5s11.57 2.522 15.548 6.5c3.978 3.978 6.5 9.49 6.5 15.548 0 6.059-2.522 11.57-6.5 15.549ZM166.192 79.17c-3.12 0-6.032 1.3-8.19 3.458-2.158 2.158-3.484 5.07-3.458 8.19 0 3.12 1.3 6.032 3.458 8.19 2.158 2.158 5.07 3.458 8.19 3.458 3.145 0 6.057-1.3 8.215-3.458 2.158-2.158 3.458-5.07 3.458-8.19 0-3.12-1.301-6.032-3.458-8.19-2.157-2.158-5.07-3.458-8.215-3.458Z"/><path d="M62.244 53.065h139.464c7.177.026 12.975 5.824 13 13v127.869c-.026 7.176-5.823 12.974-13 13H62.244c-7.177-.027-12.974-5.825-13-13V66.065c.025-7.176 5.823-12.973 13-13Zm0 10.401c-.727.027-1.352.287-1.846.78-.467.494-.753 1.12-.753 1.822v73.996l31.876-29.952c3.822-3.588 8.762-5.33 13.65-5.33s9.828 1.742 13.65 5.33l19.655 18.485 9.23-7.098c3.459-2.677 7.67-3.822 11.779-3.822 4.108.026 8.268 1.17 11.726 3.796l33.098 25.038V66.066c0-.701-.26-1.326-.754-1.82-.52-.493-1.144-.78-1.846-.78H62.245Zm39.546 90.662c4.03-1.378 7.853-3.353 10.868-5.668l17.471-13.415-18.435-17.342c-1.741-1.637-4.081-2.496-6.525-2.496s-4.784.858-6.525 2.496l-36.842 34.632-.052.051-.587.544c-.392.364-.914.849-1.493 1.38v1.95h30.055c3.797 0 8.035-.754 12.065-2.132Zm99.893 42.407c.727-.026 1.351-.286 1.845-.78v-.002c.495-.494.78-1.119.78-1.769v-34.371l-39.39-29.822-.025-.026c-1.223-.962-3.277-1.638-5.408-1.638-2.132-.025-4.187.677-5.409 1.638l-35.1 26.962c-4.055 3.12-8.813 5.538-13.831 7.255-5.018 1.69-10.27 2.653-15.392 2.678H59.645v27.275c0 .701.26 1.325.753 1.82.52.494 1.145.78 1.847.78h139.438Z"/></g></svg>
